icons/src/svg/trash_inactive.svg

<svg width="32" height="32" viewBox="0 0 32 32" fill="none" xmlns="http://www.w3.org/2000/svg">
<path fill-rule="evenodd" clip-rule="evenodd" d="M25.436 21.1933L27.8347 8H29C29.5523 8 30 7.55228 30 7C30 6.44772 29.5523 6 29 6H27.0181C27.0054 5.99976 26.9926 5.99976 26.9799 6H21V4C21 2.89543 20.1046 2 19 2H13C11.8954 2 11 2.89543 11 4V6H10.2426L12.2426 8H25.802L23.7159 19.4733L25.436 21.1933ZM19 6H13V4H19V6Z" fill="#0D0F13"/>
<path d="M6.74087 10.9826L9.83478 27.9991H22.1656L22.4105 26.6522L24.1305 28.3722C23.9515 29.3153 23.127 29.9991 22.1656 29.9991H9.83478C8.86821 29.9991 8.03995 29.3078 7.86704 28.3569L4.25635 8.49805L6.74087 10.9826Z" fill="#0D0F13"/>
<path d="M3.75736 7.99919L2.182 6.42383C2.06734 6.58654 2 6.785 2 6.99919C2 7.55147 2.44772 7.99919 3 7.99919H3.75736Z" fill="#0D0F13"/>
<path fill-rule="evenodd" clip-rule="evenodd" d="M2.29289 2.29289C2.68342 1.90237 3.31658 1.90237 3.70711 2.29289L29.7071 28.2929C30.0976 28.6834 30.0976 29.3166 29.7071 29.7071C29.3166 30.0976 28.6834 30.0976 28.2929 29.7071L2.29289 3.70711C1.90237 3.31658 1.90237 2.68342 2.29289 2.29289Z" fill="#0D0F13"/>
</svg>

<?xml version="1.0" encoding="utf-8"?>
<!-- Generator: Adobe Illustrator 26.0.1, SVG Export Plug-In . SVG Version: 6.00 Build 0)  -->
<svg version="1.1" id="Layer_1" xmlns="http://www.w3.org/2000/svg" xmlns:xlink="http://www.w3.org/1999/xlink" x="0px" y="0px"
	 viewBox="0 0 32 32" style="enable-background:new 0 0 32 32;" xml:space="preserve">
<style type="text/css">
	.st0{fill-rule:evenodd;clip-rule:evenodd;fill:#0D0F13;}
</style>
<path class="st0" d="M25.4,21.2L27.8,8H29c0.6,0,1-0.4,1-1s-0.4-1-1-1h-2c0,0,0,0,0,0h-6V4c0-1.1-0.9-2-2-2h-6c-1.1,0-2,0.9-2,2v2
	h-0.8l2,2h13.6l-2.1,11.5L25.4,21.2z M19,6h-6V4h6V6z M6.7,11l3.1,17h12.3l0.2-1.3l1.7,1.7c-0.2,0.9-1,1.6-2,1.6H9.8
	c-1,0-1.8-0.7-2-1.6L4.3,8.5L6.7,11z M3.8,8L2.2,6.4C2.1,6.6,2,6.8,2,7c0,0.6,0.4,1,1,1H3.8z M2.3,2.3c0.4-0.4,1-0.4,1.4,0l26,26
	c0.4,0.4,0.4,1,0,1.4c-0.4,0.4-1,0.4-1.4,0l-26-26C1.9,3.3,1.9,2.7,2.3,2.3z"/>
</svg>
